X: 927
T: Gül Ne Güzelsin Dalında
C: Ömer Dilek
O: Turkey
F: http://compmusic.upf.edu/node/140
N: segah--fantezi--aksak--gul_ne--omer_dilek
N: makam= segah
N: form= fantezi
N: usul= aksak = 9/8
M: 9/8
L: 1/16
K: C _1/4B _1/4e ^f 
Q: 1/4=192
%%MIDI tuningsystem comma53
G6^A2 B4 B6 | c4B2 ^A2B4B6  | d4 c2B2 e4 d4 c2 | \
w:  ARANAĞME  |   |   | 
d2 c2B2 ^A2B8z2  | 
w:   | 
g3f e2d2 e2f2 g6 | f3ed2 c2d2 e2f6  | \
w:   |   | 
d2a2 g2=f2 e2d2 c2B2 ^A2 | 
w:   | 
B3^AG2 cBB4B2 A2G2  | G6^A2 B4 B6 | c4B2 ^A2B4B6  | \
w:   |  ARANAĞME  |   | 
d4 c2B2 e4 d4 c2 | 
w:   | 
d2 c2B2 ^A2B8z2  | g3f e2d2 e2f2 g6 | \
w:   |   | 
f3ed2 c2d2 e2f6  | d2a2 g2=f2 e2d2 c2B2 ^A2 | 
w:   |   | 
B3^AG2 cBB8-B2  | G4 G2^A2 B4 c2B2 A2 | \
w:   |  Gül  ne  gü zel sin   | 
G2 dcB2 ^A2B8z2  | 
w:  da lın *  *  *  da    | 
d4 d2d2 d4 e2d2 c2 | d2 gfe2 f2d4dc B^AB2  | \
w:  Yâr  ne  şi rin sin   |  ko lum *  *  *  da   SAZ  | 
G4 G2^A2 B4 c2B2 A2 | 
w:  Gül  ne  gü zel sin   | 
G2 dcB2 ^A2B8z2  | d4 d2d2 d4 e2d2 c2 | \
w:  da lın *  *  *  da    |  Yâr  ne  şi rin sin   | 
d2 gfe2 f2d4f6  | 
w:  ko lum *  *  *  da   SAZ  | 
f4 f4 f4 f6 | f2 a2g2 f2f8-f2  | e4 e4 e2e6 z2 | \
w:  Mor  süm bül ler   |  e lin *  *  de    |  Yâ rim  a dın   | 
e2 g2f2 e2d8z2  | 
w:  di lim *  *  de    | 
d4 d2a2 g2=f2 e2d2 c2 | c3B^A2 B2c8z2  | \
w:  Ah  ne  gü zel  *  şey  |  dir  *  ya şa mak    | 
B4 B2a2 g2=f2 e2d2 c2 | 
w:  Ah  ne  gü zel  *  şey  | 
c3B^A2 cBB4f6  | f4 f4 f4 f6 | f2 a2g2 f2f8-f2  | \
w:  dir  *  ya şa *  mak   SAZ  |  Mor  süm bül ler   |  e lin *  *  de    | 
e4 e4 e2e6 z2 | 
w:  Yâ rim  a dın   | 
e2 g2f2 e2d8z2  | d4 d2a2 g2=f2 e2d2 c2 | \
w:  di lim *  *  de    |  Ah  ne  gü zel  *  şey  | 
c3B^A2 B2c8z2  | B4 B2a2 g2=f2 e2d2 c2 | 
w:  dir  *  ya şa mak    |  Ah  ne  gü zel  *  şey  | 
c3B^A2 cBB8z2  | G6^A2 B4 B6 | c4B2 ^A2B4B6  | \
w:  dir  *  ya şa *  mak    |  ARANAĞME  |   | 
d4 c2B2 e4 d4 c2 | 
w:   | 
d2 c2B2 ^A2B8z2  | g3f e2d2 e2f2 g6 | \
w:   |   | 
f3ed2 c2d2 e2f6  | d2a2 g2=f2 e2d2 c2B2 ^A2 | 
w:   |   | 
B3^AG2 cBB4B2 A2G2  | G6^A2 B4 B6 | c4B2 ^A2B4B6  | \
w:   |  ARANAĞME  |   | 
d4 c2B2 e4 d4 c2 | 
w:   | 
d2 c2B2 ^A2B8z2  | g3f e2d2 e2f2 g6 | \
w:   |   | 
f3ed2 c2d2 e2f6  | d2a2 g2=f2 e2d2 c2B2 ^A2 | 
w:   |   | 
B3^AG2 cBB8-B2  | G6^A2 B4 c2B2 A2 | \
w:   |  Gül  da lın *  *  da   | 
G2 dcB2 ^A2B8z2  | d6d2 d4 e2d2 c2 | 
w:  a çın *  *  *  ca    |  Yâr  ya nım *  *  da   | 
d2 gfe2 f2d4dc B^AB2  | G6^A2 B4 c2B2 A2 | \
w:  o lun *  *  *  ca   SAZ  |  Gül  da lın *  *  da   | 
G2 dcB2 ^A2B8z2  | 
w:  a çın *  *  *  ca    | 
d6d2 d4 e2d2 c2 | d2 gfe2 f2d4f6  | z4 f2f2 f4 f4 z2 | \
w:  Yâr  ya nım *  *  da   |  o lun *  *  *  ca   SAZ  |  Gü lü  dal da   | 
f2 a2g2 f2f8-f2  | 
w:  de rin *  *  ce    | 
e2e6 e4 e4 z2 | e2 g2f2 e2d8z2  | d4 d2a2 g2=f2 e2d2 c2 | \
w:  Şi rin  yâ ri   |  se vin *  *  ce    |  Ah  ne  gü zel  *  şey  | 
c3B^A2 B2c8z2  | 
w:  dir  *  ya şa mak    | 
B4 B2a2 g2=f2 e2d2 c2 | c3B^A2 cBB4f6  | \
w:  Ah  ne  gü zel  *  şey  |  dir  *  ya şa *  mak   SAZ  | 
z4 f2f2 f4 f4 z2 | 
w:  Gü lü  dal da   | 
f2 a2g2 f2f8-f2  | e2e6 e4 e4 z2 | e2 g2f2 e2d8z2  | \
w:  de rin *  *  ce    |  Şi rin  yâ ri   |  se vin *  *  ce    | 
d4 d2a2 g2=f2 e2d2 c2 | 
w:  Ah  ne  gü zel  *  şey  | 
c3B^A2 B2c8z2  | B4 B2a2 g2=f2 e2d2 c2 | \
w:  dir  *  ya şa mak    |  Ah  ne  gü zel  *  şey  | 
c3B^A2 cBB8z2  | 
w:  dir  *  ya şa *  mak    | 
|


